X:1
T:Mosul, 11.11.11 D
T:Mosul, 11.11.11 D
T:Theodore Edson Perkins, 1868
T:Public Domain Courtesy of the Cyber Hymnal™
C:Theodore Edson Perkins, 1868
Z:Public Domain
Z:Courtesy of the Cyber Hymnal™
%%score ( 1 2 ) ( 3 4 )
L:1/8
Q:1/4=105
M:6/8
K:G
V:1 treble 
V:2 treble 
V:3 bass 
V:4 bass 
V:1
 [GB]2 [GB] [DB]2 [DA] | [DG]3 D3 | [FA]2 [GB] [Ac]2 [GB] | [FA]3- [FA]2 z | %4
 [DB]2 [DB] [DB]2 [CA] | [EG]3 [CE]3 | D2 [DG] [DA]2 [DF] | [DG]3- [DG]2 z | %8
 [FA]2 [FA] [FA]2 [GB] | ([Ac]2 [GB]) [FA]3 | [GB]2 [Bd] [Ac]2 [GB] | [FA]3- [FA]2 z | %12
 [FA]2 [FA] [FA]2 [GB] | ([Ac]2 [GB]) [FA]3 | [FA]2 [EG] [DF]2 [^CE] | D3- D2 z | %16
 [Gd]2 [Gd] [Gd]2 [Ge] | (d2 B) G3 | [FA]2 [GB] [Ac]2 [GB] | [FA]3- [FA]2 ([GB]/[Ac]/) | %20
 [Gd]2 [Gd] [Gd]2 [Ge] | (d2 B) G2 [EA] | [DB]2 [DG] [DG]2 [DA] | [DG]6 |] %24
V:2
 x6 | x3 D3 | x6 | x6 | x6 | x6 | D2 x4 | x6 | x6 | x6 | x6 | x6 | x6 | x6 | x6 | D3- D2 x | x6 | %17
 G3 G3 | x6 | x6 | x6 | G3 G2 x | x6 | x6 |] %24
V:3
 [G,D]2 [G,D] [G,D]2 [G,C] | [G,B,]3 [G,B,]3 | [D,D]2 [D,D] [D,D]2 [D,D] | [D,D]3- [D,D]2 z | %4
 G,2 G, G,2 G, | [C,G,]3 [C,G,]3 | [D,B,]2 [D,B,] [D,C]2 [D,A,] | [G,,B,]3- [G,,B,]2 z | %8
 [D,D]2 [D,D] [D,D]2 [D,D] | [D,D]3 [D,D]3 | [G,D]2 [G,D] [F,D]2 [G,D] | [D,D]3- [D,D]2 z | %12
 [D,D]2 [D,D] [D,D]2 [D,D] | [D,D]3 [D,D]3 | [D,D]2 [G,B,] A,2 [A,,G,] | [D,F,]3- [D,F,]2 z | %16
 [G,B,]2 [G,B,] [G,B,]2 [G,C] | (B,2 D) [G,B,]3 | [D,D]2 [D,D] [F,D]2 [G,D] | %19
 [D,D]3- [D,D]2 [G,D] | [G,B,]2 [G,B,] [G,B,]2 [G,C] | (B,2 D) [B,,D]2 [C,G,] | %22
 [D,G,]2 [D,B,] [D,B,]2 [D,C] | [G,,B,]6 |] %24
V:4
 x6 | x6 | x6 | x6 | G,2 G, G,2 G, | x6 | x6 | x6 | x6 | x6 | x6 | x6 | x6 | x6 | x3 A,2 x | x6 | %16
 x6 | G,3 x3 | x6 | x6 | x6 | G,3 x3 | x6 | x6 |] %24

